packages/foundations/assets/icons/functional/images/food/breakfast_20.svg

<svg width="20" height="20" viewBox="0 0 20 20" fill="none" xmlns="http://www.w3.org/2000/svg">
<g clip-path="url(#clip0_185_1038)">
<path fill-rule="evenodd" clip-rule="evenodd" d="M16.0635 10.3748C17.1401 10.4114 18.0635 11.1294 18.0635 12.1248C18.0635 13.0971 17.1727 13.8498 16.0635 13.8718V14.6156C16.0635 15.4083 15.9647 15.9836 15.7077 16.4553C15.4508 16.927 15.1007 17.2748 14.6441 17.519C14.2006 17.7562 13.7636 17.8562 13.0327 17.8724L11.8227 17.8748C10.9507 17.8748 10.4707 17.7799 9.98297 17.519C9.52634 17.2748 9.16349 16.912 8.91928 16.4553C8.68215 16.0119 8.58214 15.5749 8.56592 14.844L8.56351 10.3748H16.0635ZM14.5633 11.8748H10.0633L10.065 14.7974C10.072 15.1953 10.0918 15.3832 10.1735 15.5986C10.2551 15.814 10.4951 16.0919 10.6904 16.1963C10.8324 16.2722 11.0796 16.3733 11.6119 16.3733C11.9668 16.3733 12.4172 16.3733 12.963 16.3733C13.5328 16.3733 13.7663 16.2874 13.9367 16.1963C14.1319 16.0919 14.2806 15.9432 14.385 15.7479C14.4743 15.581 14.5633 15.2373 14.5633 14.9054V11.8748ZM7.46355 2.35688C8.51458 2.87122 8.65442 3.78216 8.22886 4.70527L7.96361 5.22268C8.22293 5.38055 8.36314 5.66974 8.32566 5.96462L8.17054 7.18498C8.65076 7.12479 9.04406 7.42954 9.08017 7.83875C9.11628 8.24796 8.82456 8.63694 8.38677 8.6737L3.44763 9.04662C3.35785 10.2045 3.88507 11.6415 4.30503 12.2426L6.25205 11.3201C6.59054 11.148 6.95293 11.2171 7.20824 11.5613C7.46355 11.9054 7.32274 12.4177 7.01925 12.6051L6.1683 13.0447C6.37938 13.5855 6.93908 14.1809 7.10144 14.3313C7.40535 14.6127 7.42356 15.0873 7.14212 15.3912C6.86067 15.6951 6.38614 15.7133 6.08224 15.4319C5.86029 15.2263 5.64207 14.989 5.4716 14.7692C5.18171 14.3955 4.9612 14.0336 4.80184 13.6672L4.41219 13.8523C4.11991 13.9908 3.77172 13.9264 3.54838 13.6924C2.92998 13.0446 2.48069 12.1754 2.19129 11.0954C1.90189 10.0153 1.85642 9.03797 2.06804 8.16771C2.13629 7.88706 2.37055 7.5464 3.07294 7.57199C3.00113 6.97659 2.99796 6.46024 3.06343 6.02294C3.20128 5.10225 3.62588 4.30062 4.34993 3.66214C4.53837 3.49597 4.79284 3.43832 5.02773 3.49697L5.17902 3.20818C5.67768 2.25138 6.37601 1.82468 7.46355 2.35688ZM11.8135 7.12479V9.12479H10.3135V7.12479H11.8135ZM14.3135 6.12479V9.12479H12.8135V6.12479H14.3135ZM4.97864 5.1794C4.70919 5.63259 4.56519 5.96462 4.52398 6.4577C4.49651 6.78643 4.51024 7.09664 4.56519 7.38836L6.64696 7.28407L6.77659 6.26115L4.97864 5.1794Z" fill="#1A1C1F"/>
</g>
<defs>
<clipPath id="clip0_185_1038">
<rect width="20" height="20" fill="white"/>
</clipPath>
</defs>
</svg>

<svg xmlns="http://www.w3.org/2000/svg" width="20" height="20" fill="none"><g clip-path="url(#a)"><path fill="#1A1C1F" fill-rule="evenodd" d="M16.064 10.375c1.076.037 2 .754 2 1.75 0 .972-.891 1.725-2 1.747v.744c0 .792-.1 1.368-.356 1.84-.257.471-.607.819-1.064 1.063-.443.237-.88.337-1.611.353l-1.21.003c-.872 0-1.352-.095-1.84-.356a2.57 2.57 0 0 1-1.064-1.064c-.237-.443-.337-.88-.353-1.611l-.002-4.47zm-1.5 1.5h-4.5l.001 2.922c.007.398.027.586.109.802.081.215.321.493.516.597.142.076.39.177.922.177h1.351c.57 0 .803-.086.974-.177q.292-.156.448-.448c.09-.167.178-.51.178-.843zm-7.1-9.518c1.05.514 1.19 1.425.765 2.348l-.265.518c.259.158.4.447.362.742l-.155 1.22c.48-.06.873.245.91.654a.765.765 0 0 1-.694.835l-4.94.373c-.09 1.157.438 2.595.858 3.196l1.947-.923c.339-.172.7-.103.956.241s.115.857-.189 1.044l-.85.44c.21.54.77 1.136.932 1.286a.75.75 0 0 1-1.019 1.1 6 6 0 0 1-.61-.662 5.2 5.2 0 0 1-.67-1.102l-.39.185a.75.75 0 0 1-.864-.16c-.618-.647-1.067-1.517-1.357-2.597s-.335-2.057-.123-2.927c.068-.28.303-.622 1.005-.596q-.108-.893-.01-1.55a3.83 3.83 0 0 1 1.287-2.36.75.75 0 0 1 .678-.165l.151-.289c.499-.957 1.197-1.383 2.285-.851m4.35 4.768v2h-1.5v-2zm2.5-1v3h-1.5v-3zm-9.335-.946c-.27.454-.414.786-.455 1.279q-.041.493.041.93l2.082-.104.13-1.023z" clip-rule="evenodd"/></g><defs><clipPath id="a"><path fill="#fff" d="M0 0h20v20H0z"/></clipPath></defs></svg>
